report_00007_2020-12-11T15:55:29.892Z/interactive/samples/pages+cached+nointeractive/raw/values.svg

<svg width="640" height="490" xmlns="http://www.w3.org/2000/svg" xmlns:xlink="http://www.w3.org/1999/xlink"><path fill="#fff" d="M0 0h640v490H0z"/><defs><path id="d" stroke-width=".222" stroke="currentColor" d="M-1-1h2v2h-2z"/><path id="b" stroke-width=".222" stroke="currentColor" d="M0-1.33l-1.33 2h2.66z"/><path id="f" stroke-width=".222" stroke="currentColor" d="M0 1.33L1.265.411.782-1.067l-1.564-.009-.483 1.487z"/><use xlink:href="#b" id="c" stroke="currentColor" transform="rotate(180)"/><use xlink:href="#d" id="e" stroke="currentColor" transform="rotate(45)"/><circle id="a" stroke-width=".222" stroke="currentColor" cx="0" cy="0" r="1"/></defs><g fill="none" color="#000" stroke="currentColor"><path stroke="#000" d="M70.5 410.9h9m535.5 0h-9"/><text transform="translate(62.2 414.8)" stroke="none" fill="#000" font-family="Arial" font-size="12" text-anchor="end"><tspan>10940</tspan></text></g><g fill="none" color="#000" stroke="currentColor"><path stroke="#000" d="M70.5 353.9h9m535.5 0h-9"/><text transform="translate(62.2 357.8)" stroke="none" fill="#000" font-family="Arial" font-size="12" text-anchor="end"><tspan>10950</tspan></text></g><g fill="none" color="#000" stroke="currentColor"><path stroke="#000" d="M70.5 296.8h9m535.5 0h-9"/><text transform="translate(62.2 300.7)" stroke="none" fill="#000" font-family="Arial" font-size="12" text-anchor="end"><tspan>10960</tspan></text></g><g fill="none" color="#000" stroke="currentColor"><path stroke="#000" d="M70.5 239.7h9m535.5 0h-9"/><text transform="translate(62.2 243.6)" stroke="none" fill="#000" font-family="Arial" font-size="12" text-anchor="end"><tspan>10970</tspan></text></g><g fill="none" color="#000" stroke="currentColor"><path stroke="#000" d="M70.5 182.6h9m535.5 0h-9"/><text transform="translate(62.2 186.5)" stroke="none" fill="#000" font-family="Arial" font-size="12" text-anchor="end"><tspan>10980</tspan></text></g><g fill="none" color="#000" stroke="currentColor"><path stroke="#000" d="M70.5 125.6h9m535.5 0h-9"/><text transform="translate(62.2 129.5)" stroke="none" fill="#000" font-family="Arial" font-size="12" text-anchor="end"><tspan>10990</tspan></text></g><g fill="none" color="#000" stroke="currentColor"><path stroke="#000" d="M70.5 68.5h9m535.5 0h-9"/><text transform="translate(62.2 72.4)" stroke="none" fill="#000" font-family="Arial" font-size="12" text-anchor="end"><tspan>11000</tspan></text></g><g fill="none" color="#000" stroke="currentColor"><path stroke="#000" d="M70.5 436v-9m0-408.9v9"/><text transform="translate(70.5 457.9)" stroke="none" fill="#000" font-family="Arial" font-size="12" text-anchor="middle"><tspan>0</tspan></text></g><g fill="none" color="#000" stroke="currentColor"><path stroke="#000" d="M125.5 436v-9m0-408.9v9"/><text transform="translate(125.5 457.9)" stroke="none" fill="#000" font-family="Arial" font-size="12" text-anchor="middle"><tspan>10</tspan></text></g><g fill="none" color="#000" stroke="currentColor"><path stroke="#000" d="M180.5 436v-9m0-408.9v9"/><text transform="translate(180.5 457.9)" stroke="none" fill="#000" font-family="Arial" font-size="12" text-anchor="middle"><tspan>20</tspan></text></g><g fill="none" color="#000" stroke="currentColor"><path stroke="#000" d="M235.5 436v-9m0-408.9v9"/><text transform="translate(235.5 457.9)" stroke="none" fill="#000" font-family="Arial" font-size="12" text-anchor="middle"><tspan>30</tspan></text></g><g fill="none" color="#000" stroke="currentColor"><path stroke="#000" d="M290.5 436v-9m0-408.9v9"/><text transform="translate(290.5 457.9)" stroke="none" fill="#000" font-family="Arial" font-size="12" text-anchor="middle"><tspan>40</tspan></text></g><g fill="none" color="#000" stroke="currentColor"><path stroke="#000" d="M345.5 436v-9m0-408.9v9"/><text transform="translate(345.5 457.9)" stroke="none" fill="#000" font-family="Arial" font-size="12" text-anchor="middle"><tspan>50</tspan></text></g><g fill="none" color="#000" stroke="currentColor"><path stroke="#000" d="M400.5 436v-9m0-408.9v9"/><text transform="translate(400.5 457.9)" stroke="none" fill="#000" font-family="Arial" font-size="12" text-anchor="middle"><tspan>60</tspan></text></g><g fill="none" color="#000" stroke="currentColor"><path stroke="#000" d="M455.5 436v-9m0-408.9v9"/><text transform="translate(455.5 457.9)" stroke="none" fill="#000" font-family="Arial" font-size="12" text-anchor="middle"><tspan>70</tspan></text></g><g fill="none" color="#000" stroke="currentColor"><path stroke="#000" d="M510.5 436v-9m0-408.9v9"/><text transform="translate(510.5 457.9)" stroke="none" fill="#000" font-family="Arial" font-size="12" text-anchor="middle"><tspan>80</tspan></text></g><g fill="none" color="#000" stroke="currentColor"><path stroke="#000" d="M565.5 436v-9m0-408.9v9"/><text transform="translate(565.5 457.9)" stroke="none" fill="#000" font-family="Arial" font-size="12" text-anchor="middle"><tspan>90</tspan></text></g><path stroke="#000" d="M70.5 18.1V436H615V18.1H70.5z" fill="none" color="#000"/><text transform="translate(184 475.9)" stroke="none" fill="#000" font-family="Arial" font-size="12" text-anchor="end" color="#000"><tspan>raw</tspan></text><path stroke="#9400D3" d="M192.3 472h42.2m-164-281.1L76 372.7l5.5-265.3L87 222.6l5.5-25.1L98 335.7l5.5-34.6 5.5 48.1 5.5-16.6L120 26.1l5.5 196.2 5.5-13.2 5.5 92.8 5.5-82.7 5.5 114.2 5.5 21.3 5.5-170.1 5.5 192.1 5.5-8.9 5.5-113.2 5.5 104.3h5.5l5.5 12.3L197 266l5.5 125.6 5.5-15.4 5.5-5.6 5.5 39.6 5.5-60.8 5.5 1.6 5.5-163.7 5.5 138.3 5.5 30.2 5.5-62.2 5.5 49 5.5 28.2 5.5-65.1 5.5 13.4 5.5-115.6 5.5 119 5.5 20.4 5.5-146.8 5.5 174.7 5.5-183.4 5.5 179.1 5.5-31.3 5.5-.6 5.5-3.3 5.5-1.4 5.5 10.6 5.5-1.2 5.5-5.2 5.5-21.3 5.5 101.9 5.5-96.4 5.5 11.2 5.5-118.2 5.5 14.6 5.5 137.1 5.5-4.2 5.5-32.8 5.5-106.1 5.5 118.8L417 428l5.5-25.2 5.5-25.7 5.5-48 5.5 63 5.5-135.6 5.5 58.2 5.5-132.6 5.5 16.1 5.5 135.9 5.5-59 5.5 135 5.5-76.7 5.5 14.7 5.5 19.1 5.5 16.2 5.5-3.4 5.5-75.1 5.5 84.2 5.5-158.8 5.5 108.4 5.5 36.3 5.5-249.3 5.5 200.8 5.5-63.9 5.5 83.2 5.5-50.4 5.5 73L571 299l5.5 38.1 5.5 12.6 5.5 23.1 5.5-141.3 5.5 168.5 5.5-51.5 5.5-5.5 5.5-31.2" fill="none" color="#000"/><text transform="translate(383.9 475.9)" stroke="none" fill="#000" font-family="Arial" font-size="12" text-anchor="end" color="#000"><tspan>score p10=3785</tspan></text><path stroke="#009E73" d="M392.2 472h42.2" fill="none" color="#000"/><text transform="translate(583.8 475.9)" stroke="none" fill="#000" font-family="Arial" font-size="12" text-anchor="end" color="#000"><tspan>score median=7300</tspan></text><path stroke="#56B4E9" d="M592.1 472h42.2" fill="none" color="#000"/><g fill="none" color="#000" stroke="currentColor"><path stroke="#000" d="M70.5 18.1V436H615V18.1H70.5z"/></g></svg>

<?xml version="1.0" encoding="utf-8"  standalone="no"?>
<svg 
 width="640" height="490"
 viewBox="0 0 640 490"
 xmlns="http://www.w3.org/2000/svg"
 xmlns:xlink="http://www.w3.org/1999/xlink"
>

<title>Gnuplot</title>
<desc>Produced by GNUPLOT 5.4 patchlevel 0 </desc>

<g id="gnuplot_canvas">

<rect x="0" y="0" width="640" height="490" fill="#ffffff"/>
<defs>

	<circle id='gpDot' r='0.5' stroke-width='0.5' stroke='currentColor'/>
	<path id='gpPt0' stroke-width='0.222' stroke='currentColor' d='M-1,0 h2 M0,-1 v2'/>
	<path id='gpPt1' stroke-width='0.222' stroke='currentColor' d='M-1,-1 L1,1 M1,-1 L-1,1'/>
	<path id='gpPt2' stroke-width='0.222' stroke='currentColor' d='M-1,0 L1,0 M0,-1 L0,1 M-1,-1 L1,1 M-1,1 L1,-1'/>
	<rect id='gpPt3' stroke-width='0.222' stroke='currentColor' x='-1' y='-1' width='2' height='2'/>
	<rect id='gpPt4' stroke-width='0.222' stroke='currentColor' fill='currentColor' x='-1' y='-1' width='2' height='2'/>
	<circle id='gpPt5' stroke-width='0.222' stroke='currentColor' cx='0' cy='0' r='1'/>
	<use xlink:href='#gpPt5' id='gpPt6' fill='currentColor' stroke='none'/>
	<path id='gpPt7' stroke-width='0.222' stroke='currentColor' d='M0,-1.33 L-1.33,0.67 L1.33,0.67 z'/>
	<use xlink:href='#gpPt7' id='gpPt8' fill='currentColor' stroke='none'/>
	<use xlink:href='#gpPt7' id='gpPt9' stroke='currentColor' transform='rotate(180)'/>
	<use xlink:href='#gpPt9' id='gpPt10' fill='currentColor' stroke='none'/>
	<use xlink:href='#gpPt3' id='gpPt11' stroke='currentColor' transform='rotate(45)'/>
	<use xlink:href='#gpPt11' id='gpPt12' fill='currentColor' stroke='none'/>
	<path id='gpPt13' stroke-width='0.222' stroke='currentColor' d='M0,1.330 L1.265,0.411 L0.782,-1.067 L-0.782,-1.076 L-1.265,0.411 z'/>
	<use xlink:href='#gpPt13' id='gpPt14' fill='currentColor' stroke='none'/>
	<filter id='textbox' filterUnits='objectBoundingBox' x='0' y='0' height='1' width='1'>
	  <feFlood flood-color='#FFFFFF' flood-opacity='1' result='bgnd'/>
	  <feComposite in='SourceGraphic' in2='bgnd' operator='atop'/>
	</filter>
	<filter id='greybox' filterUnits='objectBoundingBox' x='0' y='0' height='1' width='1'>
	  <feFlood flood-color='lightgrey' flood-opacity='1' result='grey'/>
	  <feComposite in='SourceGraphic' in2='grey' operator='atop'/>
	</filter>
</defs>
<g fill="none" color="#FFFFFF" stroke="black" stroke-width="1.00" stroke-linecap="butt" stroke-linejoin="miter">
</g>
<g fill="none" color="black" stroke="currentColor" stroke-width="1.00" stroke-linecap="butt" stroke-linejoin="miter">
	<path stroke='black'  d='M70.5,410.9 L79.5,410.9 M615.0,410.9 L606.0,410.9  '/>	<g transform="translate(62.2,414.8)" stroke="none" fill="black" font-family="Arial" font-size="12.00"  text-anchor="end">
		<text><tspan font-family="Arial" > 10940</tspan></text>
	</g>
</g>
<g fill="none" color="black" stroke="currentColor" stroke-width="1.00" stroke-linecap="butt" stroke-linejoin="miter">
	<path stroke='black'  d='M70.5,353.9 L79.5,353.9 M615.0,353.9 L606.0,353.9  '/>	<g transform="translate(62.2,357.8)" stroke="none" fill="black" font-family="Arial" font-size="12.00"  text-anchor="end">
		<text><tspan font-family="Arial" > 10950</tspan></text>
	</g>
</g>
<g fill="none" color="black" stroke="currentColor" stroke-width="1.00" stroke-linecap="butt" stroke-linejoin="miter">
	<path stroke='black'  d='M70.5,296.8 L79.5,296.8 M615.0,296.8 L606.0,296.8  '/>	<g transform="translate(62.2,300.7)" stroke="none" fill="black" font-family="Arial" font-size="12.00"  text-anchor="end">
		<text><tspan font-family="Arial" > 10960</tspan></text>
	</g>
</g>
<g fill="none" color="black" stroke="currentColor" stroke-width="1.00" stroke-linecap="butt" stroke-linejoin="miter">
	<path stroke='black'  d='M70.5,239.7 L79.5,239.7 M615.0,239.7 L606.0,239.7  '/>	<g transform="translate(62.2,243.6)" stroke="none" fill="black" font-family="Arial" font-size="12.00"  text-anchor="end">
		<text><tspan font-family="Arial" > 10970</tspan></text>
	</g>
</g>
<g fill="none" color="black" stroke="currentColor" stroke-width="1.00" stroke-linecap="butt" stroke-linejoin="miter">
	<path stroke='black'  d='M70.5,182.6 L79.5,182.6 M615.0,182.6 L606.0,182.6  '/>	<g transform="translate(62.2,186.5)" stroke="none" fill="black" font-family="Arial" font-size="12.00"  text-anchor="end">
		<text><tspan font-family="Arial" > 10980</tspan></text>
	</g>
</g>
<g fill="none" color="black" stroke="currentColor" stroke-width="1.00" stroke-linecap="butt" stroke-linejoin="miter">
	<path stroke='black'  d='M70.5,125.6 L79.5,125.6 M615.0,125.6 L606.0,125.6  '/>	<g transform="translate(62.2,129.5)" stroke="none" fill="black" font-family="Arial" font-size="12.00"  text-anchor="end">
		<text><tspan font-family="Arial" > 10990</tspan></text>
	</g>
</g>
<g fill="none" color="black" stroke="currentColor" stroke-width="1.00" stroke-linecap="butt" stroke-linejoin="miter">
	<path stroke='black'  d='M70.5,68.5 L79.5,68.5 M615.0,68.5 L606.0,68.5  '/>	<g transform="translate(62.2,72.4)" stroke="none" fill="black" font-family="Arial" font-size="12.00"  text-anchor="end">
		<text><tspan font-family="Arial" > 11000</tspan></text>
	</g>
</g>
<g fill="none" color="black" stroke="currentColor" stroke-width="1.00" stroke-linecap="butt" stroke-linejoin="miter">
	<path stroke='black'  d='M70.5,436.0 L70.5,427.0 M70.5,18.1 L70.5,27.1  '/>	<g transform="translate(70.5,457.9)" stroke="none" fill="black" font-family="Arial" font-size="12.00"  text-anchor="middle">
		<text><tspan font-family="Arial" > 0</tspan></text>
	</g>
</g>
<g fill="none" color="black" stroke="currentColor" stroke-width="1.00" stroke-linecap="butt" stroke-linejoin="miter">
	<path stroke='black'  d='M125.5,436.0 L125.5,427.0 M125.5,18.1 L125.5,27.1  '/>	<g transform="translate(125.5,457.9)" stroke="none" fill="black" font-family="Arial" font-size="12.00"  text-anchor="middle">
		<text><tspan font-family="Arial" > 10</tspan></text>
	</g>
</g>
<g fill="none" color="black" stroke="currentColor" stroke-width="1.00" stroke-linecap="butt" stroke-linejoin="miter">
	<path stroke='black'  d='M180.5,436.0 L180.5,427.0 M180.5,18.1 L180.5,27.1  '/>	<g transform="translate(180.5,457.9)" stroke="none" fill="black" font-family="Arial" font-size="12.00"  text-anchor="middle">
		<text><tspan font-family="Arial" > 20</tspan></text>
	</g>
</g>
<g fill="none" color="black" stroke="currentColor" stroke-width="1.00" stroke-linecap="butt" stroke-linejoin="miter">
	<path stroke='black'  d='M235.5,436.0 L235.5,427.0 M235.5,18.1 L235.5,27.1  '/>	<g transform="translate(235.5,457.9)" stroke="none" fill="black" font-family="Arial" font-size="12.00"  text-anchor="middle">
		<text><tspan font-family="Arial" > 30</tspan></text>
	</g>
</g>
<g fill="none" color="black" stroke="currentColor" stroke-width="1.00" stroke-linecap="butt" stroke-linejoin="miter">
	<path stroke='black'  d='M290.5,436.0 L290.5,427.0 M290.5,18.1 L290.5,27.1  '/>	<g transform="translate(290.5,457.9)" stroke="none" fill="black" font-family="Arial" font-size="12.00"  text-anchor="middle">
		<text><tspan font-family="Arial" > 40</tspan></text>
	</g>
</g>
<g fill="none" color="black" stroke="currentColor" stroke-width="1.00" stroke-linecap="butt" stroke-linejoin="miter">
	<path stroke='black'  d='M345.5,436.0 L345.5,427.0 M345.5,18.1 L345.5,27.1  '/>	<g transform="translate(345.5,457.9)" stroke="none" fill="black" font-family="Arial" font-size="12.00"  text-anchor="middle">
		<text><tspan font-family="Arial" > 50</tspan></text>
	</g>
</g>
<g fill="none" color="black" stroke="currentColor" stroke-width="1.00" stroke-linecap="butt" stroke-linejoin="miter">
	<path stroke='black'  d='M400.5,436.0 L400.5,427.0 M400.5,18.1 L400.5,27.1  '/>	<g transform="translate(400.5,457.9)" stroke="none" fill="black" font-family="Arial" font-size="12.00"  text-anchor="middle">
		<text><tspan font-family="Arial" > 60</tspan></text>
	</g>
</g>
<g fill="none" color="black" stroke="currentColor" stroke-width="1.00" stroke-linecap="butt" stroke-linejoin="miter">
	<path stroke='black'  d='M455.5,436.0 L455.5,427.0 M455.5,18.1 L455.5,27.1  '/>	<g transform="translate(455.5,457.9)" stroke="none" fill="black" font-family="Arial" font-size="12.00"  text-anchor="middle">
		<text><tspan font-family="Arial" > 70</tspan></text>
	</g>
</g>
<g fill="none" color="black" stroke="currentColor" stroke-width="1.00" stroke-linecap="butt" stroke-linejoin="miter">
	<path stroke='black'  d='M510.5,436.0 L510.5,427.0 M510.5,18.1 L510.5,27.1  '/>	<g transform="translate(510.5,457.9)" stroke="none" fill="black" font-family="Arial" font-size="12.00"  text-anchor="middle">
		<text><tspan font-family="Arial" > 80</tspan></text>
	</g>
</g>
<g fill="none" color="black" stroke="currentColor" stroke-width="1.00" stroke-linecap="butt" stroke-linejoin="miter">
	<path stroke='black'  d='M565.5,436.0 L565.5,427.0 M565.5,18.1 L565.5,27.1  '/>	<g transform="translate(565.5,457.9)" stroke="none" fill="black" font-family="Arial" font-size="12.00"  text-anchor="middle">
		<text><tspan font-family="Arial" > 90</tspan></text>
	</g>
</g>
<g fill="none" color="black" stroke="currentColor" stroke-width="1.00" stroke-linecap="butt" stroke-linejoin="miter">
</g>
<g fill="none" color="black" stroke="currentColor" stroke-width="1.00" stroke-linecap="butt" stroke-linejoin="miter">
	<path stroke='black'  d='M70.5,18.1 L70.5,436.0 L615.0,436.0 L615.0,18.1 L70.5,18.1 Z  '/></g>
<g fill="none" color="black" stroke="currentColor" stroke-width="1.00" stroke-linecap="butt" stroke-linejoin="miter">
</g>
	<g id="gnuplot_plot_1" ><title>raw</title>
<g fill="none" color="black" stroke="currentColor" stroke-width="1.00" stroke-linecap="butt" stroke-linejoin="miter">
	<g transform="translate(184.0,475.9)" stroke="none" fill="black" font-family="Arial" font-size="12.00"  text-anchor="end">
		<text><tspan font-family="Arial" >raw</tspan></text>
	</g>
</g>
<g fill="none" color="black" stroke="currentColor" stroke-width="1.00" stroke-linecap="butt" stroke-linejoin="miter">
	<path stroke='rgb(148,   0, 211)'  d='M192.3,472.0 L234.5,472.0 M70.5,190.9 L76.0,372.7 L81.5,107.4 L87.0,222.6 L92.5,197.5 L98.0,335.7
		L103.5,301.1 L109.0,349.2 L114.5,332.6 L120.0,26.1 L125.5,222.3 L131.0,209.1 L136.5,301.9 L142.0,219.2
		L147.5,333.4 L153.0,354.7 L158.5,184.6 L164.0,376.7 L169.5,367.8 L175.0,254.6 L180.5,358.9 L186.0,358.9
		L191.5,371.2 L197.0,266.0 L202.5,391.6 L208.0,376.2 L213.5,370.6 L219.0,410.2 L224.5,349.4 L230.0,351.0
		L235.5,187.3 L241.0,325.6 L246.5,355.8 L252.0,293.6 L257.5,342.6 L263.0,370.8 L268.5,305.7 L274.0,319.1
		L279.5,203.5 L285.0,322.5 L290.5,342.9 L296.0,196.1 L301.5,370.8 L307.0,187.4 L312.5,366.5 L318.0,335.2
		L323.5,334.6 L329.0,331.3 L334.5,329.9 L340.0,340.5 L345.5,339.3 L351.0,334.1 L356.5,312.8 L362.0,414.7
		L367.5,318.3 L373.0,329.5 L378.5,211.3 L384.0,225.9 L389.5,363.0 L395.0,358.8 L400.5,326.0 L406.0,219.9
		L411.5,338.7 L417.0,428.0 L422.5,402.8 L428.0,377.1 L433.5,329.1 L439.0,392.1 L444.5,256.5 L450.0,314.7
		L455.5,182.1 L461.0,198.2 L466.5,334.1 L472.0,275.1 L477.5,410.1 L483.0,333.4 L488.5,348.1 L494.0,367.2
		L499.5,383.4 L505.0,380.0 L510.5,304.9 L516.0,389.1 L521.5,230.3 L527.0,338.7 L532.5,375.0 L538.0,125.7
		L543.5,326.5 L549.0,262.6 L554.5,345.8 L560.0,295.4 L565.5,368.4 L571.0,299.0 L576.5,337.1 L582.0,349.7
		L587.5,372.8 L593.0,231.5 L598.5,400.0 L604.0,348.5 L609.5,343.0 L615.0,311.8  '/></g>
	</g>
	<g id="gnuplot_plot_2" ><title>score p10=3785</title>
<g fill="none" color="black" stroke="currentColor" stroke-width="1.00" stroke-linecap="butt" stroke-linejoin="miter">
	<g transform="translate(383.9,475.9)" stroke="none" fill="black" font-family="Arial" font-size="12.00"  text-anchor="end">
		<text><tspan font-family="Arial" >score p10=3785</tspan></text>
	</g>
</g>
<g fill="none" color="black" stroke="currentColor" stroke-width="1.00" stroke-linecap="butt" stroke-linejoin="miter">
	<path stroke='rgb(  0, 158, 115)'  d='M392.2,472.0 L434.4,472.0  '/></g>
	</g>
	<g id="gnuplot_plot_3" ><title>score median=7300</title>
<g fill="none" color="black" stroke="currentColor" stroke-width="1.00" stroke-linecap="butt" stroke-linejoin="miter">
	<g transform="translate(583.8,475.9)" stroke="none" fill="black" font-family="Arial" font-size="12.00"  text-anchor="end">
		<text><tspan font-family="Arial" >score median=7300</tspan></text>
	</g>
</g>
<g fill="none" color="black" stroke="currentColor" stroke-width="1.00" stroke-linecap="butt" stroke-linejoin="miter">
	<path stroke='rgb( 86, 180, 233)'  d='M592.1,472.0 L634.3,472.0  '/></g>
	</g>
<g fill="none" color="#FFFFFF" stroke="rgb( 86, 180, 233)" stroke-width="2.00" stroke-linecap="butt" stroke-linejoin="miter">
</g>
<g fill="none" color="black" stroke="currentColor" stroke-width="2.00" stroke-linecap="butt" stroke-linejoin="miter">
</g>
<g fill="none" color="black" stroke="black" stroke-width="1.00" stroke-linecap="butt" stroke-linejoin="miter">
</g>
<g fill="none" color="black" stroke="currentColor" stroke-width="1.00" stroke-linecap="butt" stroke-linejoin="miter">
	<path stroke='black'  d='M70.5,18.1 L70.5,436.0 L615.0,436.0 L615.0,18.1 L70.5,18.1 Z  '/></g>
<g fill="none" color="black" stroke="currentColor" stroke-width="1.00" stroke-linecap="butt" stroke-linejoin="miter">
</g>
</g>
</svg>
